X:94
T:LRRYGF- Larry O'Gaff
S:Stanford-Petrie #373, One Hundred Irish Airs, III, 1859
Q:1/4=120
L:1/8
M:6/86
K:D
(3 A/B/c/|d3/2D/2D FED|A3/2B/2A AFD|GBG FAF|GEF GAB/c/|\
d3/2D/2D FED|ABA AFD|GBG FAF|E3/2D/2DD2||A|\
ABc dcd|efe ecA|Ace ede|fddd2 A/B/4c/4|\
d3/2D/2D FED|ABA AFD|GBG FAF|E3/2D/2DD2|]

